X:292
T:Hark, the Voice of Jesus Calling
%%stretchlast false
M:4/4
L:1/4
K:Eb clef=C1
"^I"[EBeg] "^V¹"[DBf] "^I"[EBeg] "^I¹"[G,EBb] | "^IV"[A,Eca] "^ii¹"[A,Acf] "^I²"[B,GBe] "^V"[B,FBd] | "^vi"[CEGe] "^IV"[A,EAc] "^V¹"[DFB] "^I"[EBg] | "^II7²"[CE=Af] [F,FAe] "^V"[B,DBf]2 | "^I"[EBg] "^V"[B,DBf] "^I"[EBg] "^I¹"[G,Eeb]/ "^Imaj7¹"[G,Edb]/ | "^IV"[A,Eca] "^ii¹"[A,Acf] "^I²"[B,GBe] "^V7"[B,FAd] | "^vi"[CEGe] "^IV"[A,EAc] "^V7¹"[DFAB] "^I"[EGg] | "^i"[B,EAf] "^V7"[B,DAf]/ [B,DAe]/ "^I"[EGe]2 | "^II7²"[CE=Af] [F,EAf]/ [F,EAg]/ "^I¹"[G,EBg] "^II7¹"[=A,Ecf] | "^V"[B,DBf] "^V¹"[DFBb] "^i°7"[E_Gc=a] "^I"[EGBg] | "^II"[F=Af] "^II7¹"[=A,cef]/ "^♭vø7"[=A,ceg]/ "^V"[B,df] "^♭ii°¹"[GB=eb] | "^V²"[Fdfb] "^II7"[F=Aec'] "^V"[B,Bdb]2 | "^I"[EBeg] "^V"[B,Bdf] "^I"[EBeg] "^vi7²"[G,Ecb] | "^IV"[A,Eca] "^ii¹"[A,Acf] "^I²"[B,GBe] "^iv°7¹"[=B,FAd] | "^vi"[CEGe] "^II7¹"[=A,EFc] "^I²"[B,EGB] [B,Beg] | "^i"[B,Aef] "^V7"[B,Adf]/ "^I"[E,Ge]/ [E,Ge]2 |]
